frontend/src/assets/icons/penWhite.svg

<svg width="24" height="24" viewBox="0 0 24 24" fill="none" xmlns="http://www.w3.org/2000/svg">
<path d="M23.6101 5.38925C24.13 4.86932 24.13 4.00278 23.6101 3.50951L20.4905 0.389946C19.9972 -0.129982 19.1307 -0.129982 18.6107 0.389946L16.1578 2.82961L21.1571 7.82891L23.6101 5.38925ZM0 19.0007V24H4.99931L19.7439 9.24205L14.7446 4.24274L0 19.0007Z" fill="white"/>
</svg>

<svg width="24" height="24" fill="none" xmlns="http://www.w3.org/2000/svg"><path d="M23.61 5.39c.52-.52.52-1.387 0-1.88L20.49.39c-.493-.52-1.36-.52-1.88 0l-2.452 2.44 5 4.999 2.452-2.44zM0 19v5h5L19.743 9.242l-5-5L0 19.002z" fill="#fff"/></svg>
